X: 2
T: ~ 
M: 6/8
L: 1/8
R: jig
K: G Major
|: Bc |
dBd dBG | c2 A A2 B | cBc AFD | B2 G GBc |
dB/c/d GB/c/d | c2 A A2 B | cBc e2 d | G3- G :|
|: A/B/c | 
dBd gd=f | e2 c c2 e | e^de aeg | f2 d dBc |
[1 dBd gd=f | e2 c c2 e | dBG cAF | GBA G :|
[2 dB/c/d g2 f | e^cA a2 g | ff/e/d cAF | G3- G :|
